X:103
T:Molly Jones
B:Terry "Cuz" Teahan "Sliabh Luachra on Parade" 1980
Z:Patrick Cavanagh
M:2/4
L:1/8
R:Polka
K:D
| EA AB | cA AG | Ad dc | d2 de | 
fd ed | cA AB | cA GE | D2 [1]D2 :|[2] D
|: e | fd ed | cA Ae | fd ec | d2 de | 
fd ed | cA AB | c/B/A GE | D2 D :|| 

